optimized/fill/money-cny-box.svg

<svg xmlns="http://www.w3.org/2000/svg" fill="currentColor" viewBox="0 0 24 24" aria-hidden="true">
  <path d="M3.005 3.003h18a1 1 0 011 1v16a1 1 0 01-1 1h-18a1 1 0 01-1-1v-16a1 1 0 011-1zm10 10v-1h3v-2h-2.586L15.54 7.88l-1.414-1.414-2.121 2.122-2.121-2.122-1.415 1.414 2.122 2.122H8.005v2h3v1h-3v2h3v2h2v-2h3v-2h-3z"/>
</svg>

<svg xmlns="http://www.w3.org/2000/svg" viewBox="0 0 24 24" aria-hidden="true">
  <path fill="none" d="M0 0h24v24H0z"/>
  <path d="M3 3h18a1 1 0 011 1v16a1 1 0 01-1 1H3a1 1 0 01-1-1V4a1 1 0 011-1zm10 10v-1h3v-2h-2.586l2.122-2.121-1.415-1.415L12 8.586 9.879 6.464 8.464 7.88 10.586 10H8v2h3v1H8v2h3v2h2v-2h3v-2h-3z"/>
</svg>
